src/assets/images/social/instagram.svg

<svg width="20px" height="20px" viewBox="0 0 20 20" version="1.1" xmlns="http://www.w3.org/2000/svg" xmlns:xlink="http://www.w3.org/1999/xlink">
    <g id="Desktop" stroke="none" stroke-width="1px" fill="#ffffff" fill-rule="evenodd" opacity="0.300000012">
        <g id="Desktop---Footer-v7-light" transform="translate(-925.000000, -4452.000000)" fill="#ffffff" stroke="none" stroke-width="1px">
            <g id="footer" transform="translate(0.000000, 4134.000000)" stroke="none" fill="#ffffff" stroke-width="1px">
                <g id="social" transform="translate(810.000000, 317.000000)" stroke="none" fill="#ffffff" stroke-width="1px">
                    <g id="instagram" transform="translate(115.000000, 1.000000)" stroke="none" fill="#ffffff" stroke-width="1px">
                        <path d="M10,1.80440476 C12.6692857,1.80440476 12.9854365,1.81456349 14.0395635,1.86265873 C15.014246,1.90714286 15.5435714,2.07 15.895873,2.20686508 C16.3624603,2.38821429 16.6955159,2.60488095 17.0453175,2.95468254 C17.395119,3.30448413 17.6117857,3.63753968 17.7930952,4.10412698 C17.93,4.45642857 18.0928571,4.98575397 18.1373413,5.96039683 C18.1854365,7.01456349 18.1955952,7.33071429 18.1955952,10 C18.1955952,12.6692857 18.1854365,12.9854365 18.1373413,14.0395635 C18.0928571,15.014246 17.93,15.5435714 17.7930952,15.895873 C17.6117857,16.3624603 17.395119,16.6955159 17.0453175,17.0453175 C16.6955159,17.395119 16.3624603,17.6117857 15.895873,17.7930952 C15.5435714,17.93 15.014246,18.0928571 14.0395635,18.1373413 C12.9855952,18.1854365 12.6694444,18.1955952 10,18.1955952 C7.33055556,18.1955952 7.01440476,18.1854365 5.96043651,18.1373413 C4.98575397,18.0928571 4.45642857,17.93 4.10416667,17.7930952 C3.63753968,17.6117857 3.30448413,17.395119 2.95468254,17.0453175 C2.60488095,16.6955159 2.38821429,16.3624603 2.20690476,15.895873 C2.07,15.5435714 1.90714286,15.014246 1.86265873,14.0396032 C1.81456349,12.9854365 1.80440476,12.6692857 1.80440476,10 C1.80440476,7.33071429 1.81456349,7.01456349 1.86265873,5.96043651 C1.90714286,4.98575397 2.07,4.45642857 2.20690476,4.10412698 C2.38821429,3.63753968 2.60488095,3.30448413 2.95468254,2.95468254 C3.30448413,2.60488095 3.63753968,2.38821429 4.10416667,2.20686508 C4.45642857,2.07 4.98575397,1.90714286 5.96039683,1.86265873 C7.01456349,1.81456349 7.33071429,1.80440476 10,1.80440476 M10,0.00313492063 C7.285,0.00313492063 6.94460317,0.0146428571 5.87833333,0.0632936508 C4.81424603,0.111865079 4.08757937,0.280833333 3.45166667,0.52797619 C2.79428571,0.783452381 2.23678571,1.12527778 1.68103175,1.68103175 C1.12527778,2.23678571 0.783452381,2.79428571 0.52797619,3.45166667 C0.280833333,4.08757937 0.111865079,4.81424603 0.0632936508,5.87833333 C0.0146428571,6.94456349 0.00317460317,7.285 0.00317460317,10 C0.00317460317,12.715 0.0146428571,13.0554365 0.0632936508,14.1216667 C0.111865079,15.185754 0.280833333,15.9124206 0.52797619,16.5483333 C0.783452381,17.2056746 1.12527778,17.7632143 1.68103175,18.3189683 C2.23678571,18.8747222 2.79428571,19.2165476 3.45166667,19.4720238 C4.08757937,19.7191667 4.81424603,19.8881349 5.87833333,19.9367063 C6.94460317,19.9853571 7.285,19.9968254 10,19.9968254 C12.715,19.9968254 13.0554365,19.9853571 14.1216667,19.9367063 C15.185754,19.8881349 15.9124206,19.7191667 16.5483333,19.4720238 C17.2057143,19.2165476 17.7632143,18.8747222 18.3189683,18.3189683 C18.8747222,17.7632143 19.2165476,17.2057143 19.4720238,16.5483333 C19.7191667,15.9124206 19.8881349,15.185754 19.9367063,14.1216667 C19.9853571,13.0554365 19.9968651,12.715 19.9968651,10 C19.9968651,7.285 19.9853571,6.94456349 19.9367063,5.87833333 C19.8881349,4.81424603 19.7191667,4.08757937 19.4720238,3.45166667 C19.2165476,2.79428571 18.8747222,2.23678571 18.3189683,1.68103175 C17.7632143,1.12527778 17.2057143,0.783452381 16.5483333,0.52797619 C15.9124206,0.280833333 15.185754,0.111865079 14.1216667,0.0632936508 C13.0554365,0.0146428571 12.715,0.00313492063 10,0.00313492063" id="Fill-1" stroke="none" fill="#ffffff" stroke-width="1px"></path>
                        <path d="M10,4.86646825 C7.16484127,4.86646825 4.86646825,7.16484127 4.86646825,10 C4.86646825,12.8351587 7.16484127,15.1335317 10,15.1335317 C12.8351587,15.1335317 15.1335317,12.8351587 15.1335317,10 C15.1335317,7.16484127 12.8351587,4.86646825 10,4.86646825 Z M10,13.3323016 C8.15964286,13.3323016 6.66769841,11.8403571 6.66769841,10 C6.66769841,8.15964286 8.15964286,6.66769841 10,6.66769841 C11.8403571,6.66769841 13.3323016,8.15964286 13.3323016,10 C13.3323016,11.8403571 11.8403571,13.3323016 10,13.3323016 L10,13.3323016 Z" id="Fill-2" stroke="none" fill="#ffffff" stroke-width="1px"></path>
                        <path d="M16.5359524,4.66365079 C16.5359524,5.32619048 15.9988889,5.86329365 15.3363492,5.86329365 C14.6738095,5.86329365 14.1367063,5.32619048 14.1367063,4.66365079 C14.1367063,4.00111111 14.6738095,3.46404762 15.3363492,3.46404762 C15.9988889,3.46404762 16.5359524,4.00111111 16.5359524,4.66365079" id="Fill-3" stroke="none" fill="#ffffff" stroke-width="1px"></path>
                    </g>
                </g>
            </g>
        </g>
    </g>
</svg>

<svg width="20" height="20" xmlns="http://www.w3.org/2000/svg"><g><path d="M10 1.804c2.67 0 2.985.01 4.04.059.974.044 1.504.207 1.856.344.466.181.8.398 1.15.748.35.35.566.683.747 1.15.137.351.3.88.344 1.855.048 1.055.059 1.37.059 4.04s-.01 2.985-.059 4.04c-.044.974-.207 1.504-.344 1.856-.181.466-.398.8-.748 1.15-.35.35-.683.566-1.15.747-.351.137-.88.3-1.855.344-1.054.048-1.37.059-4.04.059s-2.986-.01-4.04-.059c-.974-.044-1.504-.207-1.856-.344a3.097 3.097 0 01-1.15-.748 3.097 3.097 0 01-.747-1.15c-.137-.351-.3-.88-.344-1.855-.048-1.055-.059-1.37-.059-4.04s.01-2.985.059-4.04c.044-.974.207-1.504.344-1.856.181-.466.398-.8.748-1.15.35-.35.683-.566 1.15-.747.351-.137.88-.3 1.855-.344 1.055-.048 1.37-.059 4.04-.059m0-1.8c-2.715 0-3.055.01-4.122.06-1.064.048-1.79.217-2.426.464A4.9 4.9 0 001.68 1.681a4.9 4.9 0 00-1.153 1.77C.281 4.089.112 4.815.063 5.879.015 6.945.003 7.285.003 10s.012 3.055.06 4.122c.049 1.064.218 1.79.465 2.426a4.9 4.9 0 001.153 1.771 4.9 4.9 0 001.77 1.153c.637.247 1.363.416 2.427.465 1.067.048 1.407.06 4.122.06s3.055-.012 4.122-.06c1.064-.049 1.79-.218 2.426-.465a4.9 4.9 0 001.771-1.153 4.9 4.9 0 001.153-1.77c.247-.637.416-1.363.465-2.427.048-1.067.06-1.407.06-4.122s-.012-3.055-.06-4.122c-.049-1.064-.218-1.79-.465-2.426a4.9 4.9 0 00-1.153-1.771 4.9 4.9 0 00-1.77-1.153c-.637-.247-1.363-.416-2.427-.465C13.055.015 12.715.003 10 .003"/><path d="M10 4.866a5.134 5.134 0 100 10.268 5.134 5.134 0 000-10.268zm0 8.466a3.332 3.332 0 110-6.664 3.332 3.332 0 010 6.664zM16.536 4.664a1.2 1.2 0 11-2.4 0 1.2 1.2 0 012.4 0"/></g></svg>
